X: 33570
T: Rakes Of Kildare, The
R: jig
M: 6/8
K: Adorian
|:EAA AGA|Bcd e2f|g2g efe|dBG BAG|
EAA AGA|Bcd e2f|g2g edB|1 ABA A2G:|2 ABA A2a||
|:aea aea|aea b2a|g2g ege|dBG BAG|
[1 aea aea|aea b2a|g2g edB|ABA A2a:|
2 EAA AGA|Bcd e2f|g2g edB|ABA A2G||

